src/lib/packages/icons/src/assets/filled/file-list-ban.svg

<svg xmlns="http://www.w3.org/2000/svg" width="24" height="24" fill="none"><path fill="currentColor" d="M12.75 6V3.75l4.5 4.5H15c-1.58 0-2.25-.67-2.25-2.25Zm0 12.5c0 .73.14 1.43.4 2.08.08.2-.05.42-.27.42H6c-2 0-3-1-3-3V6c0-2 1-3 3-3h5.25v3c0 2.42 1.33 3.75 3.75 3.75h3v2.77c0 .15-.11.27-.26.29a5.735 5.735 0 0 0-4.99 5.69Zm-5-2.5a.75.75 0 1 0-1.5 0 .75.75 0 0 0 1.5 0Zm0-4a.75.75 0 1 0-1.5 0 .75.75 0 0 0 1.5 0Zm4 4a.75.75 0 0 0-.75-.75H9.5a.75.75 0 0 0 0 1.5H11a.75.75 0 0 0 .75-.75ZM14 12.75a.75.75 0 0 0 0-1.5H9.5a.75.75 0 0 0 0 1.5H14Zm8.75 5.75a4.254 4.254 0 0 1-4.25 4.25 4.254 4.254 0 0 1-4.25-4.25 4.254 4.254 0 0 1 4.25-4.25 4.254 4.254 0 0 1 4.25 4.25Zm-6.641 1.331 3.722-3.723a2.718 2.718 0 0 0-1.331-.358 2.753 2.753 0 0 0-2.75 2.75c0 .485.137.935.359 1.331ZM21.25 18.5a2.71 2.71 0 0 0-.359-1.331l-3.722 3.723c.396.221.845.358 1.331.358a2.753 2.753 0 0 0 2.75-2.75Z"/></svg>

<svg width="24" height="24" viewBox="0 0 24 24" fill="none" xmlns="http://www.w3.org/2000/svg">
<path d="M12.75 6V3.75L17.25 8.25H15C13.42 8.25 12.75 7.58 12.75 6ZM12.75 18.5C12.75 19.23 12.8899 19.93 13.1499 20.58C13.2299 20.78 13.0999 21 12.8799 21H6C4 21 3 20 3 18V6C3 4 4 3 6 3H11.25V6C11.25 8.42 12.58 9.75 15 9.75H18V12.52C18 12.67 17.89 12.79 17.74 12.81C14.92 13.17 12.75 15.59 12.75 18.5ZM7.75 16C7.75 15.586 7.414 15.25 7 15.25C6.586 15.25 6.25 15.586 6.25 16C6.25 16.414 6.586 16.75 7 16.75C7.414 16.75 7.75 16.414 7.75 16ZM7.75 12C7.75 11.586 7.414 11.25 7 11.25C6.586 11.25 6.25 11.586 6.25 12C6.25 12.414 6.586 12.75 7 12.75C7.414 12.75 7.75 12.414 7.75 12ZM11.75 16C11.75 15.586 11.414 15.25 11 15.25H9.5C9.086 15.25 8.75 15.586 8.75 16C8.75 16.414 9.086 16.75 9.5 16.75H11C11.414 16.75 11.75 16.414 11.75 16ZM14 12.75C14.414 12.75 14.75 12.414 14.75 12C14.75 11.586 14.414 11.25 14 11.25H9.5C9.086 11.25 8.75 11.586 8.75 12C8.75 12.414 9.086 12.75 9.5 12.75H14ZM22.75 18.5C22.75 20.844 20.844 22.75 18.5 22.75C16.156 22.75 14.25 20.844 14.25 18.5C14.25 16.156 16.156 14.25 18.5 14.25C20.844 14.25 22.75 16.156 22.75 18.5ZM16.1089 19.831L19.8311 16.108C19.4351 15.887 18.986 15.75 18.5 15.75C16.983 15.75 15.75 16.984 15.75 18.5C15.75 18.985 15.8869 19.435 16.1089 19.831ZM21.25 18.5C21.25 18.015 21.1131 17.565 20.8911 17.169L17.1689 20.892C17.5649 21.113 18.014 21.25 18.5 21.25C20.017 21.25 21.25 20.016 21.25 18.5Z" fill="currentColor"/>
</svg>
